source/svgs/bowtie/uE983-save-all.svg

<svg xmlns="http://www.w3.org/2000/svg" viewBox="0 0 448 448" enable-background="new 0 0 448 448"><path d="M96 416h32v32h-32v-32zm-64-128v-64h128v-32h-160v224l32 32h32v-64h128v64h64v-160h-224zm256-64v32h32v-32h-32zm-96-224v224l32 32h32v-64h128v64h64v-256h-256zm224 96h-192v-64h192v64z"/></svg>

<svg xmlns="http://www.w3.org/2000/svg" viewBox="0 0 448 448"><path d="M96 416h32v32H96v-32zM32 288v-64h128v-32H0v224l32 32h32v-64h128v64h64V288H32zm256-64v32h32v-32h-32zM192 0v224l32 32h32v-64h128v64h64V0H192zm224 96H224V32h192v64z"/></svg>
